docs/assets/images/icons/svg/features/007-bar-chart-1.svg

<svg xmlns="http://www.w3.org/2000/svg" viewBox="0 0 360.871 360.871"><circle cx="178.462" cy="180.436" r="178.462" fill="#eb7f43"/><path d="M75.471 243.722h36.411v14.843H75.471zm47.951-29.662h36.411v44.505h-36.411zm47.926-29.661h36.411v74.166h-36.411zm47.95-29.662h36.409v103.828h-36.409zm47.951-29.686h36.411v133.514h-36.411zm-237.9 125.076l-.288-1.794a148.498 148.498 0 0 0 11.793-2.405l.436 1.77a151.026 151.026 0 0 1-11.941 2.429zm23.645-5.817l-.574-1.726a164.676 164.676 0 0 0 11.286-4.226l.699 1.681a164.845 164.845 0 0 1-11.411 4.271zm22.494-9.346l-.812-1.627a203.224 203.224 0 0 0 10.619-5.716l.908 1.578a201.135 201.135 0 0 1-10.715 5.765zm21.088-12.123l-.99-1.526a279.228 279.228 0 0 0 9.996-6.809l1.056 1.482a288.335 288.335 0 0 1-10.062 6.853zm19.835-14.098l-1.108-1.442a441.932 441.932 0 0 0 9.482-7.505l1.15 1.413a431.878 431.878 0 0 1-9.524 7.534zm18.855-15.298l-1.179-1.386a871.992 871.992 0 0 0 9.182-7.904l1.194 1.374a854.26 854.26 0 0 1-9.197 7.916zm18.324-15.929l-1.206-1.366 9.095-8.039 1.204 1.366-9.093 8.039zm18.213-16.046l-1.194-1.376a973.346 973.346 0 0 1 9.216-7.934l1.179 1.388a968.265 968.265 0 0 0-9.201 7.922zm18.531-15.673l-1.15-1.413a443.322 443.322 0 0 1 9.548-7.557l1.108 1.442a448.008 448.008 0 0 0-9.506 7.528zm19.239-14.752l-1.061-1.482a295.847 295.847 0 0 1 10.055-6.88l.997 1.524a286.39 286.39 0 0 0-9.991 6.838zm20.271-13.196l-.916-1.573a211.656 211.656 0 0 1 10.681-5.841l.827 1.622a212.793 212.793 0 0 0-10.592 5.792zm21.491-10.915l-.721-1.671a175.627 175.627 0 0 1 11.35-4.436l.601 1.718a174.334 174.334 0 0 0-11.23 4.389z" fill="#fff"/><path fill="#242d3c" d="M257.841 66.378l4.099 35.596 98.931-61.711z"/><path d="M267.436 72.825l35.077 23.593 58.358-56.155zm-30.961-20.82l21.366 14.373 103.03-26.115z" fill="#f2f2f2"/><path fill="#3e4959" d="M261.94 101.974l5.496-29.149 19.85 13.336z"/></svg>

<?xml version="1.0" encoding="iso-8859-1"?>
<!-- Generator: Adobe Illustrator 19.0.0, SVG Export Plug-In . SVG Version: 6.00 Build 0)  -->
<svg version="1.1" id="Layer_1" xmlns="http://www.w3.org/2000/svg" xmlns:xlink="http://www.w3.org/1999/xlink" x="0px" y="0px"
	 viewBox="0 0 360.871 360.871" style="enable-background:new 0 0 360.871 360.871;" xml:space="preserve">
<circle style="fill:#eb7f43;" cx="178.462" cy="180.436" r="178.462"/>
<g>
	<rect x="75.471" y="243.722" style="fill:#FFFFFF;" width="36.411" height="14.843"/>
	<rect x="123.422" y="214.06" style="fill:#FFFFFF;" width="36.411" height="44.505"/>
	<rect x="171.348" y="184.399" style="fill:#FFFFFF;" width="36.411" height="74.166"/>
	<rect x="219.298" y="154.737" style="fill:#FFFFFF;" width="36.409" height="103.828"/>
	<rect x="267.249" y="125.051" style="fill:#FFFFFF;" width="36.411" height="133.514"/>
	<path style="fill:#FFFFFF;" d="M29.349,250.127l-0.288-1.794c3.938-0.638,7.904-1.445,11.793-2.405l0.436,1.77
		C37.354,248.665,33.337,249.484,29.349,250.127z M52.994,244.31l-0.574-1.726c3.744-1.246,7.542-2.666,11.286-4.226l0.699,1.681
		C60.623,241.615,56.783,243.052,52.994,244.31z M75.488,234.964l-0.812-1.627c3.495-1.748,7.07-3.668,10.619-5.716l0.908,1.578
		C82.624,231.262,79.018,233.206,75.488,234.964z M96.576,222.841l-0.99-1.526c3.257-2.112,6.619-4.404,9.996-6.809l1.056,1.482
		C103.239,218.407,99.855,220.711,96.576,222.841z M116.411,208.743l-1.108-1.442c3.05-2.343,6.242-4.871,9.482-7.505l1.15,1.413
		C122.681,203.855,119.478,206.39,116.411,208.743z M135.266,193.445l-1.179-1.386c2.841-2.41,5.846-4.994,9.182-7.904l1.194,1.374
		C141.122,188.441,138.114,191.033,135.266,193.445z M153.59,177.516l-1.206-1.366l9.095-8.039l1.204,1.366L153.59,177.516z
		 M171.803,161.47l-1.194-1.376c3.057-2.663,6.129-5.312,9.216-7.934l1.179,1.388C177.92,156.167,174.858,158.809,171.803,161.47z
		 M190.334,145.797l-1.15-1.413c3.269-2.658,6.481-5.201,9.548-7.557l1.108,1.442C196.79,140.613,193.593,143.148,190.334,145.797z
		 M209.573,131.045l-1.061-1.482c3.385-2.415,6.767-4.734,10.055-6.88l0.997,1.524C216.295,126.341,212.933,128.642,209.573,131.045
		z M229.844,117.849l-0.916-1.573c3.559-2.08,7.153-4.044,10.681-5.841l0.827,1.622C236.94,113.839,233.378,115.786,229.844,117.849
		z M251.335,106.934l-0.721-1.671c3.759-1.62,7.579-3.114,11.35-4.436l0.601,1.718C258.836,103.855,255.055,105.329,251.335,106.934
		z"/>
</g>
<polygon style="fill:#242D3C;" points="257.841,66.378 261.94,101.974 360.871,40.263 "/>
<g>
	<polygon style="fill:#F2F2F2;" points="267.436,72.825 302.513,96.418 360.871,40.263 	"/>
	<polygon style="fill:#F2F2F2;" points="236.475,52.005 257.841,66.378 360.871,40.263 	"/>
</g>
<polygon style="fill:#3E4959;" points="261.94,101.974 267.436,72.825 287.286,86.161 "/>
<g>
</g>
<g>
</g>
<g>
</g>
<g>
</g>
<g>
</g>
<g>
</g>
<g>
</g>
<g>
</g>
<g>
</g>
<g>
</g>
<g>
</g>
<g>
</g>
<g>
</g>
<g>
</g>
<g>
</g>
</svg>
